X: 145
T: No_6_War_Medicine_Song.krn
%%abc-version 2.0
%%abcx-abcm2ps-target-version 5.9.1 (29 Sep 2008)
%%abc-creator hum2abc beta
%%abcx-conversion-date 2020/08/10 18:54:57
%%gracespace 0 6 6
%%humdrum-veritas 672266523
%%humdrum-veritas-data 3539723361
%%linebreak <none>
%%barnumbers 0
L: 1/4
M: 2/4
%%staves {1 2}
V: 1 clef=treble
V: 2 clef=bass
K: C
[V:1] [K:clef=treble][M:2/4]DD ||  
[V:2] [K:clef=bass][M:2/4]G,,/G,,/ G,,/G,,/ ||  
[V:1] [M:3/4]DDD ||  
[V:2] [M:3/4]G,,/G,,/ G,,/G,,/ G,,/G,,/ ||  
[V:1] [M:2/4]D2 | 
[V:2] [M:2/4]z2 | 
[V:1] DD | 
[V:2] z2 | 
[V:1] D2 | 
[V:2] z2 | 
[V:1] CC ||  
[V:2] z2 ||  
[V:1] [M:3/4]C3 ||  
[V:2] [M:3/4]z3 ||  
[V:1] [M:2/4]CC ||  
[V:2] [M:2/4]z2 ||  
[V:1] [M:3/4]CCC ||  
[V:2] [M:3/4]z3 ||  
[V:1] [M:2/4]C3/A,/[K:clef=bass] | 
[V:2] [M:2/4]z2 | 
[V:1] [K:clef=bass]A,A, | 
[V:2] z2 | 
[V:1] A,2 | 
[V:2] z2 | 
[V:1] G,G, ||  
[V:2] z2 ||  
[V:1] [M:3/4]G,3 ||  
[V:2] [M:3/4]z3 ||  
[V:1] [M:2/4]G,G, ||  
[V:2] [M:2/4]z2 ||  
[V:1] [M:3/4]G,G,G, ||  
[V:2] [M:3/4]z3 ||  
[V:1] [M:2/4]G,3/E,/ | 
[V:2] [M:2/4]z2 | 
[V:1] E,E, | 
[V:2] z2 | 
[V:1] E,2 | 
[V:2] z2 | 
[V:1] D,D, ||  
[V:2] z2 ||  
[V:1] [M:3/4]D,3 ||  
[V:2] [M:3/4]z3 ||  
[V:1] [M:2/4]D,D, ||  
[V:2] [M:2/4]z2 ||  
[V:1] [M:3/4]D,D,D, ||  
[V:2] [M:3/4]z3 ||  
[V:1] [M:2/4]D,3/C,/ | 
[V:2] [M:2/4]z2 | 
[V:1] C,C, | 
[V:2] z2 | 
[V:1] C,2 |]  
[V:2] z2 |]  


